X:1
T:Blenheim Palace, 11.11.11 D
T:Blenheim Palace, 11.11.11 D
T:Alfred Garnett Mortimer, 1879
T:Public Domain Courtesy of the Cyber Hymnal™
C:Alfred Garnett Mortimer, 1879
Z:Public Domain
Z:Courtesy of the Cyber Hymnal™
%%score ( 1 2 ) ( 3 4 )
L:1/8
Q:1/4=110
M:4/4
K:C
V:1 treble 
V:2 treble 
V:3 bass 
V:4 bass 
V:1
 [CE]2 [CE]2 [CE]2 [CE]2 | [B,G]4 (D2 E2) | [DF]2 [DF]2 [FB]3 [FA] | [EG]8 | %4
 [EG]2 [CG]2 [Ec]2 [Ec]2 | ([^DB]3 [EA]) (G2 A2) | [DB]2 [DG]2 [CA]3 [CB] | [B,G]8 | %8
 [DF]2 [DF]2 D2 [DF]2 | ([CE]3 [B,F]) [CG]4 | [CA]2 [EA]2 [Ec]3 [DB] | [CA]8 | %12
 [DG]3 [DF] E2 [EG]2 | [Fc]4 [CF]4 | [CE]2 [_EA]2 [CD]2 [B,D]2 | C8 | C2 E2 G2 (^FG) | A4 G4 | %18
 [Ec]2 [EG]2 [FB]3 [FA] | [EG]8 | C2 E2 G2 (GB) | c4 d4 | [Ge]2 [Gc]2 [Fd]3 [Fd] | [Ec]8 |] %24
V:2
 x8 | x4 B,4 | x8 | x8 | x8 | x4 E4 | x8 | x8 | x4 D2 x2 | x8 | x8 | x8 | x4 E2 x2 | x8 | x8 | C8 | %16
 C2 E2 G2 ^FG | A4 G4 | x8 | x8 | C2 E2 G2 GB | c4 d4 | x8 | x8 |] %24
V:3
 [C,G,]2 [G,,G,]2 [C,G,]2 [G,,G,]2 | [D,G,]4 [G,,G,]4 | [B,,G,]2 [G,,B,]2 [D,G,]2 [G,,B,]2 | %3
 [C,C]8 | [C,G,]2 [E,G,]2 [C,A,]2 [A,,A,]2 | ([B,,^F,]3 [C,A,]) [^C,A,]4 | %6
 [D,G,]2 [D,B,]2 [D,^F,]3 [D,F,] | [G,,G,]8 | [B,,G,]2 [G,,B,]2 [B,,G,]2 [G,,B,]2 | %9
 ([C,C]3 [D,G,]) ([E,G,]2 [C,E,]2) | [A,,E,]2 [C,A,]2 [E,A,]3 [E,^G,] | [A,,A,]8 | %12
 B,3 [=B,D] C2 [^B,C]2 | [A,C]4 _A,4 | [G,C]2 [^F,C]2 G,2 (G,=F,) | [C,E,]8 | C,2 E,2 G,2 (^F,G,) | %17
 A,4 G,4 | [C,G,]2 [E,C]2 [G,D]3 [G,B,] | [C,C]8 | C,2 E,2 G,2 (A,B,) | C4 D4 | %22
 [C,C]2 [E,C]2 [G,B,]3 [G,B,] | [C,C]8 |] %24
V:4
 x8 | x8 | x8 | x8 | x8 | x8 | x8 | x8 | x8 | x8 | x8 | x8 | ^B,3 C2 x3 | x4 _A,4 | x4 G,2 G,,2 | %15
 x8 | C,2 E,2 G,2 ^F,G, | A,4 G,4 | x8 | x8 | C,2 E,2 G,2 A,B, | C4 D4 | x8 | x8 |] %24

